X:1
T:Gladly We Will Go
T:Gladly We Will Go
T:Clarissa Hale Spencer
T:Frances Jane (Fanny) Crosby, 1896
T:Public Domain Courtesy of the Cyber Hymnal™
T:Public Domain Courtesy of the Cyber Hymnal™
C:Clarissa Hale Spencer
Z:Public Domain
Z:Courtesy of the Cyber Hymnal™
%%score ( 1 2 ) ( 3 4 )
L:1/8
M:4/4
K:F
V:1 treble 
V:2 treble 
V:3 bass 
V:4 bass 
V:1
 C2 | [CF]4 [FG]2 [FB]2 | [FA]4 [EG]4 | [CF]2 [CF]2 [FA]2 [Fd]2 | [Fc]6 [Ec]2 | %5
w: 1.~The|Lord is our|shep- herd,|pre- cious friend and|guide, We’ll|
w: 2.~Through|sun- shine or|tem- pest,|o- ver land or|sea, What-|
w: 3.~The|Lord is our|keep- er,|watch- ing ev- er|near, In|
 [Ff]2 [Ff]2 [Fe]2 [Fd]2 | [Fc]2 [Fd]2 [Fc]2 [FA]2 | [DG]2 [B,D]2 [=B,G]3 [B,A] | [CG]6 C2 | %9
w: trust Him e- ver,|trust Him e- ver,|walk- ing by His|side; Be|
w: e’er be- falls us,|where He calls us,|quick- ly we would|be; The|
w: Him con- fid- ing,|firm a- bid- ing,|where- fore should we|fear? We’ll|
 F4 [FG]2 [FB]2 | [FA]4 [EG]4 | [CF]2 [CF]2 [FA]2 [Fd]2 | [Fc]6 [Fc]2 | [Fd]2 [Ff]2 [Fc]2 [FA]2 | %14
w: this our en-|dea- vor|faith- ful- ly to|show, Where|Je- sus leads our|
w: toils that a-|wait us|though we can- not|know, At|His com- mand with|
w: cling to the|prom- ise|left us here be-|low, And|where- so- e’er He|
 [Ec]2 [Ec]2 [FA]2 [DF]2 | [DG]2 [GB]2 [EA]3 [EG] | [CF]6 ||"^Refrain" c2 | (z2 d2) x6 | %19
w: will- ing feet be-|side Him still shall|go.|||
w: heart and hand be-|side Him we will|go.|We’ll||
w: lead- eth us be-|side Him we will|go.|||
 (z2 [Fc]2) x6 | [EG]2 [EG]2 [EG]2 [FA]2 | [EB]6 B2 | (z2 d2) x6 | (z2 E2 E2) [FA]2 | %24
w: |||||
w: |go, we’ll go, we’ll|glad- ly,||* * glad-|
w: |||||
 [EB]2 [Ec]2 [Be]3 [Bd] | [Ac]6 A2 | (z2 d2) x6 | (z2 F2 F2) [Fc]2 | [F=B]2 [Fc]2 [Ff]3 [Fe] | %29
w: |||||
w: * ly go, Though|skies are||* * dark|* and chill- y|
w: |||||
 [Fd]6 [Fd]2 | [Ee]2 [Ed]2 [EB]2 [Ed]2 | [Fd]2 [Fc]4 [FA]2 | [DG]2 [GB]2 [EA]3 [EG] | [CF]6 |] %34
w: |||||
w: winds may|blow, The lost to|find, or brave-|ly meet the foe,|Wher-|
w: |||||
V:2
 C2 | x8 | x8 | x8 | x8 | x8 | x8 | x8 | x6 C2 | (C2 F2) x4 | x8 | x8 | x8 | x8 | x8 | x8 | x6 || %17
 x2 | c6 (F2 F2) | (c6 F2 F2) | x8 | x8 | (B6 E2 E2) | G6 x2 | x8 | x8 | (c6 F2 F2) | A6 x2 | x8 | %29
 x8 | x8 | x8 | x8 | x6 |] %34
V:3
 [F,A,]2 | [F,A,]4 [F,B,]2 [F,D]2 | [F,C]4 [C,B,]4 | [F,A,]2 [F,A,]2 [F,C]2 [F,B,]2 | %4
w: ~|~ ~ ~|~We’ll go,|we’ll go ~ ~|
 [F,A,]6 [G,B,]2 | [A,C]2 [A,C]2 B,2 B,2 | [F,A,]2 [F,B,]2 [F,A,]2 [F,C]2 | %7
w: ~ ~|~ ~ ~Though skies|are dark ~ ~|
 [B,,B,]2 [B,,F,]2 [G,,F,]3 [G,,F,] | [C,E,]6 [E,B,]2 | [F,A,]4 [F,B,]2 [F,D]2 | [F,C]4 [C,B,]4 | %11
w: ~ ~ ~ ~|~The lost|to find *||
 [F,A,]2 [F,A,]2 [F,C]2 [F,B,]2 | [F,A,]6 [F,A,]2 | B,2 [B,D]2 [A,C]2 [F,C]2 | %14
w: |||
 [A,,A,]2 [A,,A,]2 [D,A,]2 [D,A,]2 | [B,,B,]2 [G,,D]2 [C,C]3 [C,B,] | [F,A,]6 || z2 | %18
w: ||||
 z2 [F,A,]2 [F,A,]2 z2 x2 | z2 [F,C]2 [F,C]2 [F,A,]2 x2 | [B,C]2 [B,C]2 [B,C]2 [A,C]2 | [G,C]6 z2 | %22
w: ||||
 z2 [C,G,]2 [C,G,]2 z2 x2 | z2 [C,C]2 [C,C]2 [C,C]2 | [C,C]2 [C,C]2 [C,C]3 [C,C] | [F,C]6 z2 | %26
w: ||||
 z2 [F,A,]2 [F,A,]2 z2 x2 | z2 [F,C]2 [F,C]2 [F,A,]2 | [F,^G,]2 [F,A,]2 [A,C]3 [A,C] | %29
w: |||
 B,6 [B,,B,]2 | [C,B,]2 [C,B,]2 [C,G,]2 [C,B,]2 | [F,B,]2 [F,A,]4 [F,C]2 | %32
w: |||
 [B,,B,]2 [G,,D]2 [C,C]3 [C,B,] | [F,A,]6 |] %34
w: ||
V:4
 x2 | x8 | x8 | x8 | x8 | x4 B,2 B,,D, | x8 | x8 | x8 | x8 | x8 | x8 | x8 | B,2 x6 | x8 | x8 | %16
 x6 || x2 | x10 | x10 | x8 | x8 | x10 | x8 | x8 | x8 | x10 | x8 | x8 | B,6 x2 | x8 | x8 | x8 | %33
 x6 |] %34

